X: 1441
T: The Old Schoolmaster
M:C|
L:1/8
N:"collected by McFadden"
B:O'Neill's 1441
Z:"Transcribed by Bob Safranek, rjs@gsp.org"
Z:Ornaments (~) in bars 5 and 13 are turns.
Z:Ornament (~) in bar 11 is a mordent.
K:C
 G2 (GA) cded  | cA (3AAA (cG)AG | EGGA      cdea  | gece Td2 (cA)          |
~G3   A  cded  | cA (3AAA (Ac)AG | EGGA      cdea  | gece  d2  "    Fine"c2 ||
 g3   d  efgd  | ea{b}ag    eaag | eg{a}gf (~gf)gb | afge  d2  cd           |
 eg{a}gf ~g3 d | ea{b}ag    eaaa | gede      cdea  | gece Td2 (c"D.C."A)    |]


